X:1
T:Puisque de toy vient
T:Guillaume le Heurteur
T:Source : Livre X de 28 chansons nouvelles à 4 parties---Paris---P.Attaingnant---1541. Editor : André Vierendeels (19/05/18) Notes : Original clefs : G2, C2, C3, C4 Original note values have been halved Editorial accidentals above the staff Square brackets indicate ligatures   
T:Puisque de toy vient
T:©
T:©
T:©
T:©
C:Guillaume le Heurteur
Z:©
%%score [ 1 [ 2 3 ] 4 ]
L:1/8
Q:1/4=120
M:2/2
K:C
V:1 treble nm="Soprano" snm="S"
V:2 treble nm="Alto 1" snm="A 1"
V:3 treble nm="Alto 2" snm="A 2"
V:4 treble-8 nm="Tenor" snm="T"
V:1
 A6 B2 | c4 d4- | d2 cB c3 d | e4 z2 d2- | d2 d2 c2 c2 | f8 | e6 dc | BA f3 e d2- | d2 c2 d4 | %9
w: Puis- que|de toy|_ _ _ vient _|_ et|_ non daul- tre|pla-|||* * ce,|
 z4 z2 d2- | d2 c2 B2 A2 | z2 c2 c2 B2- | BA A4 G2 | A4 z2 A2 | ABcd ed f2- | fe e4 d2 | e8 | %17
w: cest|_ ar- dant feu|qui nuict et|_ _ _ _|iour m'en-|flam- * * * * * *||me,|
 z4 z2 B2 | c3 B A2 G2 | A4 z4 | z4 z2 d2 | c2 A2 c3 d | e2 f2 d4- | d2 cB c4 |: z2 A4 B2 | %25
w: com-|ment _ _ ce|faict|que|tu n'en sens _|_ la flam-|* * * me?|Et que|
 c4 d4- | d2 cB c3 d | e4 z2 d2- | d2 d2 c2 c2 | f8 | e6 dc | BA f3 e d2- |"^#" d2 c2 d4- | d8 :| %34
w: vers moy|_ _ _ es _|_ plus|_ froi- de que|gla-|||* * ce?|_|
V:2
 F6 F2 | E4 A4 | A8 |"^b" z2 A2 B2 A2- | A2 G2 A3 G | FEDE FGAB | c4 C3 D | E2 F4 G2 | A2 A3 G F2 | %9
w: Puis- que|de toy|vient|et non daul-|* tre pla- *||||ce, cest ar- dant|
 E2 D2 A2 D2 | F2 G2 F4- | F2 ED E2 G2 | F2 E3 D D2- | D2 C2 DEFG | A3 G/F/ E2 A2- | AB c2 AGAB | %16
w: feu qui nuict et|iour m'en- flam-||||||
 cBAG A4 | z2 A2 G3 F | ED F3 E D2- | D2 C2 D4 | z2 G2 F2 D2 | F3 G AB c2- | cB A4 G2 | A8 |: %24
w: * * * * me,|com- ment _|_ _ _ _ _|* ce faict|que tu n'en|sens _ _ _ la|_ _ flam- *|me?|
 z2 F4 F2 | E4 A4 | A8 |"^b" z2 A2 B2 A2- | A2 G2 A3 G | FEDE FGAB | c4 C3 D | E2 F4 G2 | A4 A4- | %33
w: Et que|vers _|moy|es plus froi-|* de que _|_ _ _ _ _ _ _ _|gla- * *||* ce?|
 A8 :| %34
w: _|
V:3
 D6 D2 | C4 F4 | E2 E4 E2 | C2 C2 D2 F2- | F2 ED E4 | z2 D4 D2 | C3 D EDEF | G2 C2 D4 | E4 D4 | %9
w: Puis- que|de toy|vient et non|daul- tre pla- *|* * * ce,|et non|daul- * * * * *|* tre pla-|* ce,|
 z2 D2 C2 B,2 | A,2 G,A, B,C D2- | D2 CB, C2 D2 | D2 C2 D3 E | F2 E2 F4- | F2 ED C2 F2 | D2 E2 F4 | %16
w: cest ar- dant|feu _ _ _ _ _|_ _ _ _ qui|nuict et iour _|_ m'en- flam-|||
 E4 z2 E2 | F4 D4 | C2 C2 D2 D2 | E2 F3 E D2- | D2 C2 DEFG | A4 z2 A2 | G2 F4 ED | E2 F2 E4 |: %24
w: me, com-|ment ce|faict que tu n'en|sens la _ _|_ flam- * * * *|me, la|flam- * * *|* * me?|
 z2 D4 D2 | C4 F4 | E2 E4 E2 | C2 C2 D2 F2- | F2 ED E4 | z2 D4 D2 | C3 D EDEF | G2 C2 D4 | E4 D4- | %33
w: Et que|vers moy|es plus froi-|de que gla- *|* * * ce,|plus froi-|de _ _ _ _ _|_ que gla-|* ce?|
 D8 :| %34
w: _|
V:4
 D6 D2 | A4 D4 | A4 A4- | A2 A2 G2 F2 |"^b" B4 A4 | z2 D3 EFG | A6 A2 |"^b" G2 F2 B4 | A4 D2 d2 | %9
w: Puis- que|de toy|vient et|_ non daul- tre|pla- ce,|et _ _ _|non daul|_ tre pla-|* ce, cest|
 c2 B2 A2 G2 | F2 E2 D3 E | FG A4 G2 | A4 B4 | A4 D2 d2- | d2 cA c2 d2- | d2 c2 d4 | A4 z2 A2 | %17
w: ar- dant feu qui|nuict et iour _|_ _ _ m'en-|flam- *|* me, m'en-|* * * flam- *||me, com-|
 F4 G4 | A2 A2 F2 B2 | A3 G F2 G2 | E4 D4 | z2 d2 c2 A2 |"^b" c2 d2 B4 | A8 |: z2 D4 D2 | A4 D4 | %26
w: ment ce|faict que tu n'en|sens _ _ la|flam- me,|que tu n'en|sens la flam-|me?|Et que|vers moy|
 A4 A4- | A2 A2 G2 F2 |"^b" B4 A4 | z2 D3 EFG | A6 A2 |"^b" G2 F2 B4 | A4 D4- | D8 :| %34
w: es plus|_ froi- de que|gla- ce,|plus _ _ _|froi- de|_ que gla-|* ce?|_|

